X:1
T:Townes Van Zandt
M:3/4
L:1/8
Q:1/4=70
K:Em
E2 E2 G2 | A3 z3 | B2 A2 G2 | E3 z3 |
B,2 E2 G2 | B3 A2 G | E2 D2 E2 | G3 z3 |
B2 B2 d2 | B2 A2 G2 | A2 B2 A2 | G3 E2 z |
B,2 D2 E2 | A2 G2 E2 | E3 z3 | z6 |
